Komodo/actions/scalable/dialog-ok.svg

<?xml version="1.0" encoding="UTF-8" standalone="no"?>
<!-- Created with Inkscape (http://www.inkscape.org/) -->
<svg id="svg11037" xmlns:rdf="http://www.w3.org/1999/02/22-rdf-syntax-ns#" xmlns="http://www.w3.org/2000/svg" height="96" width="96" version="1.1" xmlns:cc="http://creativecommons.org/ns#" xmlns:xlink="http://www.w3.org/1999/xlink" xmlns:dc="http://purl.org/dc/elements/1.1/">
 <defs id="defs11039">
  <clipPath id="clipPath3009" clipPathUnits="userSpaceOnUse">
   <path id="path3011" style="opacity:.15;fill:#fff" d="m-2 956.36h-96v33.562l96 25.687v-59.25z"/>
  </clipPath>
  <linearGradient id="linearGradient3017" y2="20.492" gradientUnits="userSpaceOnUse" x2="8.7405" gradientTransform="matrix(3.0237 0 0 2.3518 18.667 20)" y1="4.5356" x1="8.7405">
   <stop id="stop3639-3" style="stop-color:#f0f0f0" offset="0"/>
   <stop id="stop3641-0" style="stop-color:#aaa" offset="1"/>
  </linearGradient>
 </defs>
 <metadata id="metadata11042">
  <rdf:RDF>
   <cc:Work rdf:about="">
    <dc:format>image/svg+xml</dc:format>
    <dc:type rdf:resource="http://purl.org/dc/dcmitype/StillImage"/>
    <dc:title/>
   </cc:Work>
  </rdf:RDF>
 </metadata>
 <g id="layer1" transform="translate(0 -956.36)">
  <rect id="rect3867" style="opacity:.6" rx="25" ry="25" height="92" width="92" y="958.36" x="2"/>
  <g id="g3070" transform="translate(0 956.36)">
   <path id="path3884" d="m64 31-22 22-10-10-8 8 18 18 30-30z" style="opacity:.3"/>
   <path id="Symbol" d="m64 30-22 22-10-10-8 8 18 18 30-30z" style="fill:url(#linearGradient3017)"/>
   <path id="path3866" d="m64 30-22 22-10-10-8 8 0.5 0.5 7.5-7.5 10 10 22-22 7.5 7.5 0.5-0.5-8-8z" style="opacity:.75;fill:#fff"/>
   <path id="path3875" d="m71.5 37.5-29.5 29.5-17.5-17.5-0.5 0.5 18 18 30-30-0.5-0.5z" style="opacity:.15"/>
  </g>
  <rect id="rect3003" style="opacity:.15;fill:#fff" transform="translate(98)" clip-path="url(#clipPath3009)" rx="25" ry="25" height="92" width="92" y="958.36" x="-96"/>
 </g>
</svg>

<?xml version="1.0" encoding="UTF-8" standalone="no"?>
<!-- Created with Inkscape (http://www.inkscape.org/) -->

<svg
   xmlns:dc="http://purl.org/dc/elements/1.1/"
   xmlns:cc="http://creativecommons.org/ns#"
   xmlns:rdf="http://www.w3.org/1999/02/22-rdf-syntax-ns#"
   xmlns:svg="http://www.w3.org/2000/svg"
   xmlns="http://www.w3.org/2000/svg"
   xmlns:xlink="http://www.w3.org/1999/xlink"
   xmlns:sodipodi="http://sodipodi.sourceforge.net/DTD/sodipodi-0.dtd"
   xmlns:inkscape="http://www.inkscape.org/namespaces/inkscape"
   width="96"
   height="96"
   id="svg11037"
   version="1.1"
   inkscape:version="0.48.3.1 r9886"
   sodipodi:docname="dialog-apply.svg">
  <defs
     id="defs11039">
    <linearGradient
       y2="1046.1001"
       x2="47.999954"
       y1="962.62189"
       x1="47.999954"
       gradientTransform="matrix(1.15,0,0,1.15,-7.1999462,-150.65291)"
       gradientUnits="userSpaceOnUse"
       id="linearGradient3886"
       xlink:href="#linearGradient3795"
       inkscape:collect="always" />
    <linearGradient
       id="linearGradient3795">
      <stop
         style="stop-color:#13a6fd;stop-opacity:1;"
         offset="0"
         id="stop3797" />
      <stop
         style="stop-color:#2975b6;stop-opacity:1;"
         offset="1"
         id="stop3799" />
    </linearGradient>
    <clipPath
       clipPathUnits="userSpaceOnUse"
       id="clipPath3009">
      <path
         id="path3011"
         d="m -2,956.36218 -96,0 0,33.5624 96,25.68742 0,-59.24982 z"
         style="opacity:0.15;fill:#ffffff;fill-opacity:1;stroke:none"
         inkscape:connector-curvature="0" />
    </clipPath>
    <linearGradient
       x1="11.998966"
       y1="1.8417114"
       x2="11.998966"
       y2="20.237488"
       id="linearGradient3867"
       xlink:href="#linearGradient3637"
       gradientUnits="userSpaceOnUse"
       gradientTransform="matrix(2.7741687,0,0,3.2616291,2.819831,13.992926)" />
    <linearGradient
       id="linearGradient3637">
      <stop
         id="stop3639"
         style="stop-color:#f0f0f0;stop-opacity:1"
         offset="0" />
      <stop
         id="stop3641"
         style="stop-color:#aaaaaa;stop-opacity:1"
         offset="1" />
    </linearGradient>
    <linearGradient
       x1="11.998966"
       y1="1.8417114"
       x2="11.998966"
       y2="20.237488"
       id="linearGradient3105"
       xlink:href="#linearGradient3637-3"
       gradientUnits="userSpaceOnUse"
       gradientTransform="matrix(2.7741687,0,0,3.2616291,2.819831,13.992926)" />
    <linearGradient
       id="linearGradient3637-3">
      <stop
         id="stop3639-1"
         style="stop-color:#f0f0f0;stop-opacity:1"
         offset="0" />
      <stop
         id="stop3641-4"
         style="stop-color:#aaaaaa;stop-opacity:1"
         offset="1" />
    </linearGradient>
    <linearGradient
       x1="3"
       y1="11"
       x2="19"
       y2="11"
       id="linearGradient3139"
       xlink:href="#linearGradient3637-6"
       gradientUnits="userSpaceOnUse"
       gradientTransform="matrix(0,3.125,-3.125,0,84.375,11.625)" />
    <linearGradient
       id="linearGradient3637-6">
      <stop
         id="stop3639-5"
         style="stop-color:#f0f0f0;stop-opacity:1"
         offset="0" />
      <stop
         id="stop3641-9"
         style="stop-color:#aaaaaa;stop-opacity:1"
         offset="1" />
    </linearGradient>
    <linearGradient
       x1="11.998966"
       y1="5.5317268"
       x2="11.998966"
       y2="20.282997"
       id="linearGradient3877"
       xlink:href="#linearGradient3637-2"
       gradientUnits="userSpaceOnUse"
       gradientTransform="matrix(2.7658632,0,0,3.2539569,10,6)" />
    <linearGradient
       id="linearGradient3637-2">
      <stop
         id="stop3639-4"
         style="stop-color:#f0f0f0;stop-opacity:1"
         offset="0" />
      <stop
         id="stop3641-3"
         style="stop-color:#aaaaaa;stop-opacity:1"
         offset="1" />
    </linearGradient>
    <linearGradient
       x1="652.021"
       y1="347.86285"
       x2="627.67029"
       y2="349.2926"
       id="linearGradient7313"
       xlink:href="#linearGradient3637-5"
       gradientUnits="userSpaceOnUse"
       gradientTransform="matrix(0.11586665,-1.9518366,1.9733605,0.1145396,-711.10468,1256.8145)" />
    <linearGradient
       id="linearGradient3637-5">
      <stop
         id="stop3639-9"
         style="stop-color:#f0f0f0;stop-opacity:1"
         offset="0" />
      <stop
         id="stop3641-8"
         style="stop-color:#aaaaaa;stop-opacity:1"
         offset="1" />
    </linearGradient>
    <linearGradient
       x1="647.27832"
       y1="349.10172"
       x2="639.46515"
       y2="357.89178"
       id="linearGradient3811"
       xlink:href="#linearGradient3183-0"
       gradientUnits="userSpaceOnUse"
       gradientTransform="matrix(-1.3783144,1.2009005,-1.2251361,-1.3503034,1354.9038,-244.77384)" />
    <linearGradient
       id="linearGradient3183-0">
      <stop
         id="stop3185-9"
         style="stop-color:#c80000;stop-opacity:1"
         offset="0" />
      <stop
         id="stop3187-6"
         style="stop-color:#f3604d;stop-opacity:1"
         offset="1" />
    </linearGradient>
    <linearGradient
       x1="11.162445"
       y1="5.6551228"
       x2="11.162445"
       y2="18.097509"
       id="linearGradient3018"
       xlink:href="#linearGradient3637-8"
       gradientUnits="userSpaceOnUse"
       gradientTransform="matrix(3.6987654,0,0,2.8914301,10.901546,15.338296)" />
    <linearGradient
       id="linearGradient3637-8">
      <stop
         id="stop3639-97"
         style="stop-color:#f0f0f0;stop-opacity:1"
         offset="0" />
      <stop
         id="stop3641-6"
         style="stop-color:#aaaaaa;stop-opacity:1"
         offset="1" />
    </linearGradient>
    <linearGradient
       x1="8.7404661"
       y1="4.5355735"
       x2="8.7404661"
       y2="20.492353"
       id="linearGradient3017"
       xlink:href="#linearGradient3637-65"
       gradientUnits="userSpaceOnUse"
       gradientTransform="matrix(3.0237157,0,0,2.3517789,18.666667,20)" />
    <linearGradient
       id="linearGradient3637-65">
      <stop
         id="stop3639-3"
         style="stop-color:#f0f0f0;stop-opacity:1"
         offset="0" />
      <stop
         id="stop3641-0"
         style="stop-color:#aaaaaa;stop-opacity:1"
         offset="1" />
    </linearGradient>
  </defs>
  <sodipodi:namedview
     id="base"
     pagecolor="#ffffff"
     bordercolor="#666666"
     borderopacity="1.0"
     inkscape:pageopacity="0.0"
     inkscape:pageshadow="2"
     inkscape:zoom="3.959798"
     inkscape:cx="29.118614"
     inkscape:cy="59.964634"
     inkscape:document-units="px"
     inkscape:current-layer="layer1"
     showgrid="false"
     inkscape:window-width="1280"
     inkscape:window-height="750"
     inkscape:window-x="0"
     inkscape:window-y="22"
     inkscape:window-maximized="1"
     showguides="true"
     inkscape:guide-bbox="true">
    <sodipodi:guide
       orientation="0,1"
       position="-24.748737,0"
       id="guide11064" />
    <sodipodi:guide
       orientation="0,1"
       position="-23.233509,96"
       id="guide11066" />
    <sodipodi:guide
       orientation="1,0"
       position="0,54.800776"
       id="guide11068" />
    <sodipodi:guide
       orientation="1,0"
       position="96,51.012704"
       id="guide11070" />
    <sodipodi:guide
       orientation="0,1"
       position="-18.94036,48"
       id="guide11072" />
    <sodipodi:guide
       orientation="1,0"
       position="48,79.296975"
       id="guide11074" />
    <sodipodi:guide
       orientation="1,0"
       position="2,75.508903"
       id="guide11076" />
    <sodipodi:guide
       orientation="0,1"
       position="-77.27667,2"
       id="guide11078" />
    <sodipodi:guide
       orientation="1,0"
       position="94,77.781746"
       id="guide11080" />
    <sodipodi:guide
       orientation="0,1"
       position="-65.912454,94"
       id="guide11082" />
  </sodipodi:namedview>
  <metadata
     id="metadata11042">
    <rdf:RDF>
      <cc:Work
         rdf:about="">
        <dc:format>image/svg+xml</dc:format>
        <dc:type
           rdf:resource="http://purl.org/dc/dcmitype/StillImage" />
        <dc:title></dc:title>
      </cc:Work>
    </rdf:RDF>
  </metadata>
  <g
     inkscape:label="Layer 1"
     inkscape:groupmode="layer"
     id="layer1"
     transform="translate(0,-956.36218)">
    <rect
       x="2"
       y="958.36218"
       width="92"
       height="92"
       style="fill:#000000;fill-opacity:1;opacity:0.6"
       id="rect3867"
       rx="25"
       ry="25" />
    <g
       transform="translate(0,956.36218)"
       style="display:inline"
       id="g3070">
      <path
         style="opacity:0.3;fill:#000000;fill-opacity:1;stroke:none;display:inline"
         id="path3884"
         inkscape:connector-curvature="0"
         d="M 64,31 42,53 32,43 24,51 42,69 72,39 z" />
      <path
         style="fill:url(#linearGradient3017);fill-opacity:1;stroke:none;display:inline"
         id="Symbol"
         inkscape:connector-curvature="0"
         d="M 64,30 42,52 32,42 24,50 42,68 72,38 z" />
      <path
         style="opacity:0.75;fill:#ffffff;fill-opacity:1;stroke:none;display:inline"
         id="path3866"
         inkscape:connector-curvature="0"
         d="M 64,30 42,52 32,42 24,50 24.5,50.5 32,43 42,53 64,31 71.5,38.5 72,38 64,30 z" />
      <path
         style="opacity:0.15;fill:#000000;fill-opacity:1;stroke:none;display:inline"
         id="path3875"
         inkscape:connector-curvature="0"
         d="M 71.5,37.5 42,67 24.5,49.5 24,50 42,68 72,38 71.5,37.5 z" />
    </g>
    <rect
       ry="25"
       rx="25"
       id="rect3003"
       style="opacity:0.15;fill:#ffffff;fill-opacity:1"
       height="92"
       width="92"
       y="958.36218"
       x="-96"
       clip-path="url(#clipPath3009)"
       transform="translate(98,0)" />
  </g>
</svg>
